img/section2-background-tablet.svg

<svg fill="none" height="1194" viewBox="0 0 834 1194" width="834" xmlns="http://www.w3.org/2000/svg" xmlns:xlink="http://www.w3.org/1999/xlink"><linearGradient id="a"><stop offset="0" stop-color="#ffa01d"/><stop offset=".22" stop-color="#ffa01d"/><stop offset=".44" stop-color="#32a4c9"/><stop offset=".74" stop-color="#0089c8"/><stop offset="1" stop-color="#0072b6"/></linearGradient><linearGradient id="b" gradientUnits="userSpaceOnUse" x1="195.288" x2="1487.28" xlink:href="#a" y1="-1054.71" y2="-664.225"/><linearGradient id="c" gradientUnits="userSpaceOnUse" x1="738.687" x2="1537.44" xlink:href="#a" y1="-466.556" y2="990.226"/><mask id="d" height="1194" maskUnits="userSpaceOnUse" width="834" x="0" y="0"><path d="m0 0h834v1194h-834z" fill="url(#b)"/></mask><path d="m0 0h834v1194h-834z" fill="#fff"/><path d="m0 0h834v1194h-834z" fill="#ffb81d" fill-opacity=".05"/><g mask="url(#d)"><path d="m260.074-38.1088h863.476c4.99 0 18.42 20.8999 20.23 23.3309 14.91 19.80864 25.49 40.9197 31.42 62.6996 6.92 26.0699 7.67 55.8903-3.87 81.3993-15.14 33.55-40.73 64.075-52.21 98.714-11.49 34.638-22.32 97.096 21.47 125.168 4.29 2.96 9.79 5.025 15.84 5.94 30.72 3.828 85.61-32.769 107.55-44.088 38.51-19.855 75.88-40.645 114.4-60.5 52.87-27.235 106.1-57.991 171.41-71.114 95.25-19.151 148.17 23.452 232.07 40.986 27.27 5.709 58.33 6.16 83.33-3.058 14.74-5.423 26.49-13.849 36.43-22.869 41.03-37.191 56.32-85.316 69.91-129.6564 1.66-5.709 21.24-107.0404 20.56-107.0404h311.96c-220.33 66.2856-264.23 249.4348-448.02 341.9768-50.34 25.509-105.38 58.399-169.16 67.43-24.41 3.465-53.43-.253-67.15-14.058-16.52-16.599-9.34-38.643-25.25-56.012-14.59-15.917-38.88-27.588-66.99-30.228-25.32-2.387-51.15 1.1-75.39 6.446-75.72 16.698-135.91 51.59-193.33 86.9-43.89 27.016-77.49 60.566-135.04 76.284-19.54 5.335-41.55 8.261-61.87 4.477-84.754-15.763-42.26-124.387-22.1-161.589 17.46-32.24 40.95-62.864 59.66-94.786 7.61-12.947 14.52-26.4 15.2-40.238 2.7-53.9766-90.18-71.3014-156.21-64.6135-87.895 8.91-128.195 75.7015-174.627 117.9745-24.612 22.418-55.672 43.395-95.623 51.7-71.809 14.926-119.903-19.536-127.963-64.042-7.029-39.138-1.13-79.86-35.597-114.3994-34.466-34.5398-86.416-60.9947-140.127-81.77356-33.719-13.12294-83.308-31.36084-124.389-31.36084z" fill="url(#c)"/></g></svg>

<svg width="834" height="1194" viewBox="0 0 834 1194" fill="none" xmlns="http://www.w3.org/2000/svg">
<rect width="834" height="1194" fill="white"/>
<rect width="834" height="1194" fill="#FFB81D" fill-opacity="0.05"/>
<mask id="mask0_225_1434" style="mask-type:alpha" maskUnits="userSpaceOnUse" x="0" y="0" width="834" height="1194">
<rect width="834" height="1194" fill="url(#paint0_linear_225_1434)"/>
</mask>
<g mask="url(#mask0_225_1434)">
<path d="M260.074 -38.1088H1123.55C1128.54 -38.1088 1141.97 -17.2089 1143.78 -14.7779C1158.69 5.03074 1169.27 26.1418 1175.2 47.9217C1182.12 73.9916 1182.87 103.812 1171.33 129.321C1156.19 162.871 1130.6 193.396 1119.12 228.035C1107.63 262.673 1096.8 325.131 1140.59 353.203C1144.88 356.163 1150.38 358.228 1156.43 359.143C1187.15 362.971 1242.04 326.374 1263.98 315.055C1302.49 295.2 1339.86 274.41 1378.38 254.555C1431.25 227.32 1484.48 196.564 1549.79 183.441C1645.04 164.29 1697.96 206.893 1781.86 224.427C1809.13 230.136 1840.19 230.587 1865.19 221.369C1879.93 215.946 1891.68 207.52 1901.62 198.5C1942.65 161.309 1957.94 113.184 1971.53 68.8436C1973.19 63.1346 1992.77 -38.1968 1992.09 -38.1968H2304.05C2083.72 28.0888 2039.82 211.238 1856.03 303.78C1805.69 329.289 1750.65 362.179 1686.87 371.21C1662.46 374.675 1633.44 370.957 1619.72 357.152C1603.2 340.553 1610.38 318.509 1594.47 301.14C1579.88 285.223 1555.59 273.552 1527.48 270.912C1502.16 268.525 1476.33 272.012 1452.09 277.358C1376.37 294.056 1316.18 328.948 1258.76 364.258C1214.87 391.274 1181.27 424.824 1123.72 440.542C1104.18 445.877 1082.17 448.803 1061.85 445.019C977.096 429.256 1019.59 320.632 1039.75 283.43C1057.21 251.19 1080.7 220.566 1099.41 188.644C1107.02 175.697 1113.93 162.244 1114.61 148.406C1117.31 94.4294 1024.43 77.1046 958.4 83.7925C870.505 92.7025 830.205 159.494 783.773 201.767C759.161 224.185 728.101 245.162 688.15 253.467C616.341 268.393 568.247 233.931 560.187 189.425C553.158 150.287 559.057 109.565 524.59 75.0256C490.124 40.4858 438.174 14.0309 384.463 -6.74796C350.744 -19.8709 301.155 -38.1088 260.074 -38.1088Z" fill="url(#paint1_linear_225_1434)"/>
</g>
<defs>
<linearGradient id="paint0_linear_225_1434" x1="195.288" y1="-1054.71" x2="1487.28" y2="-664.225" gradientUnits="userSpaceOnUse">
<stop stop-color="#FFA01D"/>
<stop offset="0.22" stop-color="#FFA01D"/>
<stop offset="0.44" stop-color="#32A4C9"/>
<stop offset="0.74" stop-color="#0089C8"/>
<stop offset="1" stop-color="#0072B6"/>
</linearGradient>
<linearGradient id="paint1_linear_225_1434" x1="738.687" y1="-466.556" x2="1537.44" y2="990.226" gradientUnits="userSpaceOnUse">
<stop stop-color="#FFA01D"/>
<stop offset="0.22" stop-color="#FFA01D"/>
<stop offset="0.44" stop-color="#32A4C9"/>
<stop offset="0.74" stop-color="#0089C8"/>
<stop offset="1" stop-color="#0072B6"/>
</linearGradient>
</defs>
</svg>
